qml/icons/navigation/on-ramp-left-white.svg

<svg id="WORKING_ICONS" data-name="WORKING ICONS" xmlns="http://www.w3.org/2000/svg" width="20" height="20" viewBox="0 0 20 20">
  <title>direction</title>
  <path fill="#ffffff" d="M9.00078,5.97986l0.011,0.00183a6.06019,6.06019,0,0,1,5.989,6.07324V16H14.99766l0.002,1.50317A0.49614,0.49614,0,0,1,14.50346,18H13.497a0.49622,0.49622,0,0,1-.49622-0.49622V12.05493A4.05782,4.05782,0,0,0,9.012,7.98169H7.01323a0.3576,0.3576,0,0,0-.37738.54248L7.9796,11.476a0.38659,0.38659,0,0,1-.62354.40942L1.00908,7l6.347-4.922a0.38659,0.38659,0,0,1,.62354.40942L6.63585,5.43927a0.35757,0.35757,0,0,0,.37738.54242H9.00078"/>
</svg>

<svg data-name="WORKING ICONS" xmlns="http://www.w3.org/2000/svg" width="20" height="20"><path fill="#fff" d="m9 5.98.012.002A6.06 6.06 0 0 1 15 12.055V16h-.003L15 17.503a.496.496 0 0 1-.497.497h-1.006a.496.496 0 0 1-.496-.496v-5.45a4.058 4.058 0 0 0-3.989-4.072H7.013a.358.358 0 0 0-.377.542l1.344 2.952a.387.387 0 0 1-.624.41L1.01 7l6.347-4.922a.387.387 0 0 1 .624.41l-1.345 2.95a.358.358 0 0 0 .377.543h1.988"/></svg>
